X: 21464
T: THE BLACK COCK OF WICKAM
R: reel
B: K\"ohler's Violin Repository, v.2, 1885 p.146 #4
F: http://www.archive.org/details/klersviolinrepos02rugg
Z: 2012 John Chambers <jc:trillian.mit.edu>
N: 2nd part is missing its initial repeat symbol; fixed.
M: C|
L: 1/8
K: F
uf |\
cF (d/c/B) (AF)Af | cF (d/c/B) A2f2 | cF (d/c/B) (AF)FA | BGGA B2 :|
|: u(fg) |\
afcf Afcf | afcB A2(fg) |1 afcf AfcA | BGGA B2 :|2 afge fdcA | BGGA B2 "_D.C.":|

%%sep 2 1 500

